X: 31308
T: Paddy Kelly's
R: reel
M: 4/4
K: Gmajor
G2dG BGdG|~G2dG GFDE|~=F2cF AFcF|~=F2cF FECD|
G3A (3BAG dG|~G2dG GFDE|=FG (3ABc ~=f3d|1 cA=FA G2 (3DE^F:|2 cAFA GABd||
|:g2dg Bgdg|gabg afde|~=f2cf Afcf|=fgaf gfd^f|
~g2dg Bgdg|gabg afde|~=f3a gefd|1 cA=FA GABd:|2 cA=FA ~G3^F||
|:GABd cABA|G2 (3Bcd gdBG|=F2AF cFAF|~=F2AF cFAF|
GABd cABA|GB~B2 GABc|de=fd gefd|1 cA=FA ~G3^F:|2 cA=FA G2 (3ABc||
|:dg~g2 bg~g2|dg~g2 dcBc|d=f~f2 af~f2|d=f~f2 dcBc|
dg~g2 bg~g2|dg~g2 dcBc|de=fd gefd|1 cA=FA G2 (3ABc:|2 cA=FA ~G3F||

